X:408
T:Scotland. (p)1698.PLFD.408
M:9/4
L:1/4
Q:3/4=120
S:Playford, Dancing Master,10th Ed,1698
O:England
H:1698.
Z:Chris Partington.
K:G
g2d(dB)d(ef)g|f2AA2G(cB)A|g2d(dB)d(ef)g|(GA)BA2GG3:|
|:B2d(dB)d(dB)G|c2e(ec)eecA|B2d(dB)d(dB)G|(GA)BA2GG3|]
